src/assets/img/descarga_guia.svg

<svg fill="none" height="205" viewBox="0 0 661 205" width="661" xmlns="http://www.w3.org/2000/svg"><path clip-rule="evenodd" d="m370.324 39.2171c.046-.0015.098-.0037.155-.007.556-.0316 1.359-.1409 2.465-.3608 2.222-.4418 5.092-1.2093 8.657-2.1885.432-.1187.873-.2399 1.321-.3634 6.819-1.8773 15.512-4.2706 24.919-5.8435 19.875-3.3231 44.541-3.2628 62.864 14.5046 17.89 17.3484 21.415 39.1075 16.872 55.5145-2.255 8.144-6.586 15.256-12.474 19.719-2.936 2.224-6.249 3.768-9.779 4.42 5.48 7.675 10.309 16.361 12.86 25.186 3.039 10.514 2.975 21.8-3.857 31.513-11.172 15.887-25.209 22.361-40.086 22.858-14.505.485-29.38-4.719-42.722-11.137-9.991-4.807-19.57-10.532-27.739-15.415-2.731-1.632-5.304-3.169-7.682-4.547-4.879-2.827-8.807-4.908-11.805-6.02-1.497-.556-2.486-.762-3.071-.799-.04-.002-.075-.004-.107-.005-.367.319-.946.877-1.867 1.81-.22.222-.452.458-.698.708-.98.998-2.163 2.202-3.493 3.48-3.357 3.228-7.83 7.115-13.574 10.563-11.627 6.978-28.092 11.921-50.491 6.855-16.129-3.648-26.317-9.5-31.864-16.77-2.991-3.921-4.472-8.039-4.89-12.035-4.539.589-9.363.777-14.174.543-9.343-.454-19.147-2.528-27.083-6.831-8.013-4.345-14.522-11.23-15.943-21.195-1.236-8.659-.063-15.334 3.408-20.295 3.437-4.912 8.495-7.22 12.984-8.536 2.26-.664 4.534-1.119 6.56-1.498.472-.088.925-.172 1.362-.252 1.519-.279 2.834-.521 4.059-.811 1.583-.375 2.546-.731 3.111-1.056.151-.087.24-.152.289-.192.053-.227.048-.8531-1.081-2.517-.656-.9665-1.509-2.015-2.591-3.3066-.143-.17-.289-.3443-.439-.5225-.934-1.1117-1.995-2.3743-3.005-3.7004-2.352-3.0874-4.836-7.0213-5.742-11.9264-.934-5.0497-.096-10.5472 3.152-16.5565 3.365-6.2263 8.054-9.93 13.377-11.7221 5.147-1.7327 10.486-1.5456 15.109-.8198 4.091.6422 8.015 1.7802 11.059 2.6633.388.1123.76.2204 1.118.3229 1.614.4633 2.816.7855 3.727.9563.157-.1907.338-.4181.545-.6872.844-1.0984 1.849-2.5266 3.111-4.3202.269-.3837.551-.7841.846-1.2017 3.26-4.6246 7.713-10.8104 13.46-17.041 11.481-12.4447 28.514-25.48246 52.378-26.83833 11.698-.66467 20.928 1.15048 28.312 4.52776 7.39 3.37977 12.636 8.18937 16.553 13.07707 3.402 4.2455 5.867 8.6518 7.764 12.0442.251.4487.492.8796.724 1.2901 1.044 1.8482 1.83 3.1536 2.534 4.0677.272.3539.473.5689.602.6935zm-127.516 15.1415c0-.0013.016-.0165.048-.0417-.032.0304-.048.043-.048.0417zm-34.02 46.4504c-.003.006-.005.012-.007.019.001-.004.003-.008.005-.013 0-.002.001-.004.002-.006zm.055-.103c.01-.013.017-.02.018-.02s-.004.007-.018.02zm35.548 57.995c.57-.178 1.13-.363 1.677-.557 3.616-1.279 6.995-3.016 9.558-5.339 2.612-2.367 4.641-5.618 4.641-9.656 0-3.049-1.064-7.091-5.173-8.618-3.39-1.259-6.713.156-8.72 1.368-4.375 2.642-8.765 8.015-10.901 14.376-4.511.786-9.644 1.114-14.909.857-8.345-.406-16.51-2.254-22.683-5.601-6.097-3.305-9.838-7.798-10.666-13.608-1.015-7.115.187-10.854 1.654-12.95 1.5-2.144 3.943-3.536 7.454-4.566 1.739-.51 3.591-.889 5.557-1.257.383-.072.777-.144 1.177-.218 1.559-.286 3.217-.59 4.723-.947 1.886-.446 4.001-1.075 5.866-2.147 1.958-1.126 3.871-2.881 4.826-5.582 1.711-4.8347-.314-8.9802-2.237-11.8125-.983-1.4483-2.148-2.8599-3.216-4.1341-.157-.1884-.314-.3746-.468-.5589-.942-1.1213-1.829-2.1773-2.678-3.2925-1.971-2.5867-3.336-4.9899-3.812-7.5658-.449-2.4313-.205-5.5589 2.087-9.7996 2.175-4.0236 4.849-5.9365 7.614-6.8673 2.941-.9901 6.417-1.0063 10.235-.407 3.404.5343 6.681 1.4824 9.779 2.3782.388.1124.774.2239 1.157.3337 1.628.4673 3.332.9393 4.838 1.2103 1.242.2234 3.505.559 5.622-.2802 1.375-.5453 2.378-1.5071 2.914-2.0558.644-.6591 1.281-1.438 1.882-2.2206.991-1.2887 2.156-2.9452 3.418-4.7404.26-.3693.524-.7445.791-1.1235 3.213-4.5567 7.347-10.2835 12.615-15.9946 10.553-11.4388 25.269-22.4011 45.405-23.5452 10.302-.5853 17.822 1.037 23.453 3.6129 5.627 2.5734 9.662 6.2325 12.807 10.1573 2.834 3.5354 4.875 7.178 6.798 10.6069.255.4559.509.9081.761 1.3557 1.026 1.8158 2.135 3.7174 3.339 5.2818 1.165 1.5125 2.876 3.331 5.34 4.2006 1.482.5232 3.004.5432 4.147.4781 1.229-.0699 2.555-.277 3.885-.5415 2.651-.5269 5.887-1.4 9.376-2.3583.412-.1132.83-.2281 1.252-.3445 6.868-1.8899 15.095-4.1537 23.961-5.6361 19-3.1769 39.334-2.4873 54.011 11.7454 15.11 14.6516 17.692 32.4968 14.121 45.3915-1.801 6.507-5.082 11.47-8.775 14.269-3.548 2.688-7.47 3.439-11.582 1.852-.58-.223-1.805-.675-3.179-.616-.746.031-2.282.245-3.603 1.529-1.447 1.405-1.677 3.134-1.616 4.185.055.964.351 1.713.518 2.09.192.433.408.801.583 1.075.349.546.754 1.06 1.101 1.476.706.846 1.541 1.719 2.155 2.35.159.163.371.379.542.554.107.109.199.203.251.256.074.076.125.129.157.163 6.232 8.022 11.577 17.056 14.087 25.74 2.509 8.678 2.054 16.426-2.39 22.745-9.325 13.26-20.382 18.108-32.02 18.497-12.011.401-25.075-3.946-37.922-10.127-9.531-4.585-18.504-9.947-26.592-14.781-2.823-1.687-5.538-3.309-8.132-4.812-4.879-2.827-9.48-5.315-13.383-6.763-1.953-.725-4.008-1.297-6.01-1.421-2.024-.126-4.424.186-6.527 1.726-1.116.817-2.334 2.037-3.397 3.114-.249.252-.502.509-.761.772-.973.99-2.028 2.064-3.242 3.231-3.04 2.923-6.893 6.25-11.739 9.159-9.555 5.734-23.331 10.076-42.933 5.642-14.988-3.39-22.483-8.424-25.959-12.979-2-2.622-2.849-5.324-2.91-7.955zm8.069-14.382c.039-.012.057-.014.057-.013-.001.002-.02.007-.057.013zm200.973-20.938c-.001-.001.028.006.089.028-.057-.015-.088-.026-.089-.028z" fill="#465fc0" fill-rule="evenodd"/><g fill="#0b0c18"><path d="m11.2211 115.816c-1.1335-2.43-1.96311-4.407-2.50567-5.765-.40681-1.018-.65187-1.688-.74216-1.94-.63117-1.76-2.46727-2.674-4.24484-2.182-.19223.054-.38461.124-.56354.206-1.64644.759-2.402168 2.606-1.78056 4.339.11642.325.39066 1.073.83053 2.174.58634 1.468 1.4677 3.566 2.66225 6.127 2.38712 5.119 6.03579 12.112 11.09559 19.638 10.0874 15.003 25.9762 32.405 48.9256 41.011 22.7938 8.548 46.7237 7.686 64.7787 4.781 9.055-1.457 16.707-3.44 22.103-5.061 2.546-.765 4.595-1.451 6.056-1.965-1.403 1.294-2.937 2.672-4.505 4.055-3.044 2.685-6.173 5.348-8.649 7.392-1.239 1.024-2.301 1.88-3.099 2.502-.401.312-.717.551-.947.717-.126.091-.197.139-.224.157l-.007.005c-1.641.899-2.29 2.944-1.446 4.633.865 1.729 2.967 2.429 4.696 1.565.407-.203.828-.504 1.08-.685.326-.236.716-.532 1.15-.87.87-.678 1.988-1.58 3.254-2.626 2.536-2.093 5.723-4.806 8.823-7.54 3.09-2.725 6.137-5.51 8.372-7.736 1.104-1.1 2.085-2.137 2.781-2.999.333-.413.709-.915.991-1.444.136-.255.339-.677.455-1.204.104-.473.255-1.572-.405-2.709l-.579-.998-1.581-.685c-7.414-3.212-16.375-7.095-24.442-10.909-8.376-3.961-15.401-7.671-18.819-10.369-1.517-1.198-3.718-.939-4.916.578-1.197 1.517-.938 3.718.579 4.916 4.144 3.271 11.9 7.296 20.164 11.203 4.714 2.229 9.72 4.477 14.53 6.594-1.335.464-3.132 1.058-5.326 1.718-5.164 1.551-12.51 3.455-21.201 4.854-17.438 2.805-40.0026 3.528-61.2088-4.424-21.0506-7.894-35.9118-23.992-45.5744-38.363-4.8152-7.162-8.2915-13.825-10.5607-18.691z"/><path clip-rule="evenodd" d="m530.98 18.2979c1.619 1.0556 2.076 3.2241 1.02 4.8434-.359.5519-1.012 1.5284-1.877 2.8229-2.423 3.6249-6.512 9.7426-10.501 16.009-2.693 4.2314-5.285 8.4459-7.212 11.8836-.131.2337-.258.4628-.382.6873.67-.3171 1.462-.6813 2.371-1.0814 3.179-1.3984 7.796-3.2386 13.618-5.043 11.638-3.6066 28.139-7.0842 47.614-6.5718 19.773.5202 34.881 7.1332 45.045 13.629 5.078 3.2457 8.929 6.4655 11.525 8.8917 1.299 1.2137 2.287 2.2312 2.959 2.9573.238.2561 1.171 1.3224 1.074 1.2136 1.224 1.4963 1.003 3.7013-.493 4.9251-1.626 1.3293-3.806.7921-5.092-.6885-.132-.152-.34-.3868-.624-.693-.567-.6126-1.436-1.5098-2.603-2.6-2.335-2.1817-5.851-5.1264-10.516-8.1079-9.323-5.9583-23.208-12.0496-41.459-12.5297-18.547-.488-34.274 2.8258-45.358 6.2605-5.538 1.7164-9.905 3.4594-12.871 4.764-1.711.7527-4.218 1.631-5.531 2.5081.597.5789 1.3 1.2058 2.107 1.8751 3.242 2.6902 7.693 5.6892 12.275 8.529 4.557 2.8251 9.14 5.4297 12.592 7.3318 1.724.9498 3.16 1.7217 4.164 2.2551.502.2667.895.4736 1.162.6132 1.776.9303 2.898 3.0012 1.903 4.9255-1.021 1.9749-3.347 2.2202-5.151 1.2757-.278-.1458-.684-.3594-1.199-.6332-1.03-.5475-2.498-1.3363-4.257-2.3056-3.514-1.9361-8.209-4.6034-12.902-7.5128-4.67-2.8947-9.443-6.0928-13.057-9.0914-1.798-1.4914-3.426-3.0287-4.619-4.5379-1.075-1.3587-2.339-3.3568-2.205-5.6458.079-1.3482.712-2.9005 1.276-4.1415.643-1.4129 1.519-3.0815 2.528-4.8812 2.023-3.6083 4.697-7.9517 7.413-12.2195 4.043-6.3522 8.303-12.7264 10.704-16.3187.81-1.2112 1.408-2.1062 1.715-2.5774 1.056-1.6193 3.224-2.0762 4.844-1.0206z" fill-rule="evenodd"/></g></svg>

<svg width="661" height="205" viewBox="0 0 661 205" fill="none" xmlns="http://www.w3.org/2000/svg">
<path fill-rule="evenodd" clip-rule="evenodd" d="M370.324 39.2171C370.37 39.2156 370.422 39.2134 370.479 39.2101C371.035 39.1785 371.838 39.0692 372.944 38.8493C375.166 38.4075 378.036 37.64 381.601 36.6608C382.033 36.5421 382.474 36.4209 382.922 36.2974C389.741 34.4201 398.434 32.0268 407.841 30.4539C427.716 27.1308 452.382 27.1911 470.705 44.9585C488.595 62.3069 492.12 84.066 487.577 100.473C485.322 108.617 480.991 115.729 475.103 120.192C472.167 122.416 468.854 123.96 465.324 124.612C470.804 132.287 475.633 140.973 478.184 149.798C481.223 160.312 481.159 171.598 474.327 181.311C463.155 197.198 449.118 203.672 434.241 204.169C419.736 204.654 404.861 199.45 391.519 193.032C381.528 188.225 371.949 182.5 363.78 177.617C361.049 175.985 358.476 174.448 356.098 173.07C351.219 170.243 347.291 168.162 344.293 167.05C342.796 166.494 341.807 166.288 341.222 166.251C341.182 166.249 341.147 166.247 341.115 166.246C340.748 166.565 340.169 167.123 339.248 168.056C339.028 168.278 338.796 168.514 338.55 168.764C337.57 169.762 336.387 170.966 335.057 172.244C331.7 175.472 327.227 179.359 321.483 182.807C309.856 189.785 293.391 194.728 270.992 189.662C254.863 186.014 244.675 180.162 239.128 172.892C236.137 168.971 234.656 164.853 234.238 160.857C229.699 161.446 224.875 161.634 220.064 161.4C210.721 160.946 200.917 158.872 192.981 154.569C184.968 150.224 178.459 143.339 177.038 133.374C175.802 124.715 176.975 118.04 180.446 113.079C183.883 108.167 188.941 105.859 193.43 104.543C195.69 103.879 197.964 103.424 199.99 103.045C200.462 102.957 200.915 102.873 201.352 102.793C202.871 102.514 204.186 102.272 205.411 101.982C206.994 101.607 207.957 101.251 208.522 100.926C208.673 100.839 208.762 100.774 208.811 100.734C208.864 100.507 208.859 99.8809 207.73 98.217C207.074 97.2505 206.221 96.202 205.139 94.9104C204.996 94.7404 204.85 94.5661 204.7 94.3879C203.766 93.2762 202.705 92.0136 201.695 90.6875C199.343 87.6001 196.859 83.6662 195.953 78.7611C195.019 73.7114 195.857 68.2139 199.105 62.2046C202.47 55.9783 207.159 52.2746 212.482 50.4825C217.629 48.7498 222.968 48.9369 227.591 49.6627C231.682 50.3049 235.606 51.4429 238.65 52.326C239.038 52.4383 239.41 52.5464 239.768 52.6489C241.382 53.1122 242.584 53.4344 243.495 53.6052C243.652 53.4145 243.833 53.1871 244.04 52.918C244.884 51.8196 245.889 50.3914 247.151 48.5978C247.42 48.2141 247.702 47.8137 247.997 47.3961C251.257 42.7715 255.71 36.5857 261.457 30.3551C272.938 17.9104 289.971 4.87264 313.835 3.51677C325.533 2.8521 334.763 4.66725 342.147 8.04453C349.537 11.4243 354.783 16.2339 358.7 21.1216C362.102 25.3671 364.567 29.7734 366.464 33.1658C366.715 33.6145 366.956 34.0454 367.188 34.4559C368.232 36.3041 369.018 37.6095 369.722 38.5236C369.994 38.8775 370.195 39.0925 370.324 39.2171ZM242.808 54.3586C242.808 54.3573 242.824 54.3421 242.856 54.3169C242.824 54.3473 242.808 54.3599 242.808 54.3586ZM208.788 100.809C208.785 100.815 208.783 100.821 208.781 100.828C208.782 100.824 208.784 100.82 208.786 100.815C208.786 100.813 208.787 100.811 208.788 100.809ZM208.843 100.706C208.853 100.693 208.86 100.686 208.861 100.686C208.862 100.686 208.857 100.693 208.843 100.706ZM244.391 158.701C244.961 158.523 245.521 158.338 246.068 158.144C249.684 156.865 253.063 155.128 255.626 152.805C258.238 150.438 260.267 147.187 260.267 143.149C260.267 140.1 259.203 136.058 255.094 134.531C251.704 133.272 248.381 134.687 246.374 135.899C241.999 138.541 237.609 143.914 235.473 150.275C230.962 151.061 225.829 151.389 220.564 151.132C212.219 150.726 204.054 148.878 197.881 145.531C191.784 142.226 188.043 137.733 187.215 131.923C186.2 124.808 187.402 121.069 188.869 118.973C190.369 116.829 192.812 115.437 196.323 114.407C198.062 113.897 199.914 113.518 201.88 113.15C202.263 113.078 202.657 113.006 203.057 112.932C204.616 112.646 206.274 112.342 207.78 111.985C209.666 111.539 211.781 110.91 213.646 109.838C215.604 108.712 217.517 106.957 218.472 104.256C220.183 99.4213 218.158 95.2758 216.235 92.4435C215.252 90.9952 214.087 89.5836 213.019 88.3094C212.862 88.121 212.705 87.9348 212.551 87.7505C211.609 86.6292 210.722 85.5732 209.873 84.458C207.902 81.8713 206.537 79.4681 206.061 76.8922C205.612 74.4609 205.856 71.3333 208.148 67.0926C210.323 63.069 212.997 61.1561 215.762 60.2253C218.703 59.2352 222.179 59.219 225.997 59.8183C229.401 60.3526 232.678 61.3007 235.776 62.1965C236.164 62.3089 236.55 62.4204 236.933 62.5302C238.561 62.9975 240.265 63.4695 241.771 63.7405C243.013 63.9639 245.276 64.2995 247.393 63.4603C248.768 62.915 249.771 61.9532 250.307 61.4045C250.951 60.7454 251.588 59.9665 252.189 59.1839C253.18 57.8952 254.345 56.2387 255.607 54.4435C255.867 54.0742 256.131 53.699 256.398 53.32C259.611 48.7633 263.745 43.0365 269.013 37.3254C279.566 25.8866 294.282 14.9243 314.418 13.7802C324.72 13.1949 332.24 14.8172 337.871 17.3931C343.498 19.9665 347.533 23.6256 350.678 27.5504C353.512 31.0858 355.553 34.7284 357.476 38.1573C357.731 38.6132 357.985 39.0654 358.237 39.513C359.263 41.3288 360.372 43.2304 361.576 44.7948C362.741 46.3073 364.452 48.1258 366.916 48.9954C368.398 49.5186 369.92 49.5386 371.063 49.4735C372.292 49.4036 373.618 49.1965 374.948 48.932C377.599 48.4051 380.835 47.532 384.324 46.5737C384.736 46.4605 385.154 46.3456 385.576 46.2292C392.444 44.3393 400.671 42.0755 409.537 40.5931C428.537 37.4162 448.871 38.1058 463.548 52.3385C478.658 66.9901 481.24 84.8353 477.669 97.73C475.868 104.237 472.587 109.2 468.894 111.999C465.346 114.687 461.424 115.438 457.312 113.851C456.732 113.628 455.507 113.176 454.133 113.235C453.387 113.266 451.851 113.48 450.53 114.764C449.083 116.169 448.853 117.898 448.914 118.949C448.969 119.913 449.265 120.662 449.432 121.039C449.624 121.472 449.84 121.84 450.015 122.114C450.364 122.66 450.769 123.174 451.116 123.59C451.822 124.436 452.657 125.309 453.271 125.94C453.43 126.103 453.642 126.319 453.813 126.494C453.92 126.603 454.012 126.697 454.064 126.75C454.138 126.826 454.189 126.879 454.221 126.913C460.453 134.935 465.798 143.969 468.308 152.653C470.817 161.331 470.362 169.079 465.918 175.398C456.593 188.658 445.536 193.506 433.898 193.895C421.887 194.296 408.823 189.949 395.976 183.768C386.445 179.183 377.472 173.821 369.384 168.987C366.561 167.3 363.846 165.678 361.252 164.175C356.373 161.348 351.772 158.86 347.869 157.412C345.916 156.687 343.861 156.115 341.859 155.991C339.835 155.865 337.435 156.177 335.332 157.717C334.216 158.534 332.998 159.754 331.935 160.831C331.686 161.083 331.433 161.34 331.174 161.603C330.201 162.593 329.146 163.667 327.932 164.834C324.892 167.757 321.039 171.084 316.193 173.993C306.638 179.727 292.862 184.069 273.26 179.635C258.272 176.245 250.777 171.211 247.301 166.656C245.301 164.034 244.452 161.332 244.391 158.701ZM252.46 144.319C252.499 144.307 252.517 144.305 252.517 144.306C252.516 144.308 252.497 144.313 252.46 144.319ZM453.433 123.381C453.432 123.38 453.461 123.387 453.522 123.409C453.465 123.394 453.434 123.383 453.433 123.381Z" fill="#465FC0"/>
<path d="M11.2211 115.816C10.0876 113.386 9.25799 111.409 8.71543 110.051C8.30862 109.033 8.06356 108.363 7.97327 108.111C7.3421 106.351 5.506 105.437 3.72843 105.929C3.5362 105.983 3.34382 106.053 3.16489 106.135C1.51845 106.894 0.762722 108.741 1.38433 110.474C1.50075 110.799 1.77499 111.547 2.21486 112.648C2.8012 114.116 3.68256 116.214 4.87711 118.775C7.26423 123.894 10.9129 130.887 15.9727 138.413C26.0601 153.416 41.9489 170.818 64.8983 179.424C87.6921 187.972 111.622 187.11 129.677 184.205C138.732 182.748 146.384 180.765 151.78 179.144C154.326 178.379 156.375 177.693 157.836 177.179C156.433 178.473 154.899 179.851 153.331 181.234C150.287 183.919 147.158 186.582 144.682 188.626C143.443 189.65 142.381 190.506 141.583 191.128C141.182 191.44 140.866 191.679 140.636 191.845C140.51 191.936 140.439 191.984 140.412 192.002L140.405 192.007C138.764 192.906 138.115 194.951 138.959 196.64C139.824 198.369 141.926 199.069 143.655 198.205C144.062 198.002 144.483 197.701 144.735 197.52C145.061 197.284 145.451 196.988 145.885 196.65C146.755 195.972 147.873 195.07 149.139 194.024C151.675 191.931 154.862 189.218 157.962 186.484C161.052 183.759 164.099 180.974 166.334 178.748C167.438 177.648 168.419 176.611 169.115 175.749C169.448 175.336 169.824 174.834 170.106 174.305C170.242 174.05 170.445 173.628 170.561 173.101C170.665 172.628 170.816 171.529 170.156 170.392L169.577 169.394L167.996 168.709C160.582 165.497 151.621 161.614 143.554 157.8C135.178 153.839 128.153 150.129 124.735 147.431C123.218 146.233 121.017 146.492 119.819 148.009C118.622 149.526 118.881 151.727 120.398 152.925C124.542 156.196 132.298 160.221 140.562 164.128C145.276 166.357 150.282 168.605 155.092 170.722C153.757 171.186 151.96 171.78 149.766 172.44C144.602 173.991 137.256 175.895 128.565 177.294C111.127 180.099 88.5624 180.822 67.3562 172.87C46.3056 164.976 31.4444 148.878 21.7818 134.507C16.9666 127.345 13.4903 120.682 11.2211 115.816Z" fill="#0B0C18"/>
<path fill-rule="evenodd" clip-rule="evenodd" d="M530.98 18.2979C532.599 19.3535 533.056 21.522 532 23.1413C531.641 23.6932 530.988 24.6697 530.123 25.9642C527.7 29.5891 523.611 35.7068 519.622 41.9732C516.929 46.2046 514.337 50.4191 512.41 53.8568C512.279 54.0905 512.152 54.3196 512.028 54.5441C512.698 54.227 513.49 53.8628 514.399 53.4627C517.578 52.0643 522.195 50.2241 528.017 48.4197C539.655 44.8131 556.156 41.3355 575.631 41.8479C595.404 42.3681 610.512 48.9811 620.676 55.4769C625.754 58.7226 629.605 61.9424 632.201 64.3686C633.5 65.5823 634.488 66.5998 635.16 67.3259C635.398 67.582 636.331 68.6483 636.234 68.5395C637.458 70.0358 637.237 72.2408 635.741 73.4646C634.115 74.7939 631.935 74.2567 630.649 72.7761C630.517 72.6241 630.309 72.3893 630.025 72.0831C629.458 71.4705 628.589 70.5733 627.422 69.4831C625.087 67.3014 621.571 64.3567 616.906 61.3752C607.583 55.4169 593.698 49.3256 575.447 48.8455C556.9 48.3575 541.173 51.6713 530.089 55.106C524.551 56.8224 520.184 58.5654 517.218 59.87C515.507 60.6227 513 61.501 511.687 62.3781C512.284 62.957 512.987 63.5839 513.794 64.2532C517.036 66.9434 521.487 69.9424 526.069 72.7822C530.626 75.6073 535.209 78.2119 538.661 80.114C540.385 81.0638 541.821 81.8357 542.825 82.3691C543.327 82.6358 543.72 82.8427 543.987 82.9823C545.763 83.9126 546.885 85.9835 545.89 87.9078C544.869 89.8827 542.543 90.128 540.739 89.1835C540.461 89.0377 540.055 88.8241 539.54 88.5503C538.51 88.0028 537.042 87.214 535.283 86.2447C531.769 84.3086 527.074 81.6413 522.381 78.7319C517.711 75.8372 512.938 72.6391 509.324 69.6405C507.526 68.1491 505.898 66.6118 504.705 65.1026C503.63 63.7439 502.366 61.7458 502.5 59.4568C502.579 58.1086 503.212 56.5563 503.776 55.3153C504.419 53.9024 505.295 52.2338 506.304 50.4341C508.327 46.8258 511.001 42.4824 513.717 38.2146C517.76 31.8624 522.02 25.4882 524.421 21.8959C525.231 20.6847 525.829 19.7897 526.136 19.3185C527.192 17.6992 529.36 17.2423 530.98 18.2979Z" fill="#0B0C18"/>
</svg>
